icons/squirrel-24.svg

<svg width="24" height="24" viewBox="0 0 24 24" fill="none" xmlns="http://www.w3.org/2000/svg">
<path d="M18.3767 3.48953C16.5147 3.1791 14.6585 4.10979 13.9208 5.58517C13.4926 6.44158 13.23 7.20896 13.1934 7.94606C13.1581 8.65685 13.3305 9.39018 13.8625 10.1981C14.5069 11.0521 15.0617 12.1109 15.4711 13.5439C15.5849 13.9422 15.3543 14.3573 14.956 14.4711C14.5578 14.5849 14.1427 14.3543 14.0289 13.956C13.6758 12.7202 13.2098 11.8209 12.6569 11.0907L12.6489 11.0802C12.1187 10.3825 11.5089 9.83912 10.8424 9.30301C10.6277 9.13033 10.4047 8.95699 10.1751 8.77862C9.02388 7.88398 7.7095 6.86259 6.47083 5.16082C5.88071 5.44831 5.22306 5.95892 4.6649 6.61475C4.00024 7.39573 3.56813 8.27444 3.50738 9.0614C3.75316 9.42106 4.19214 9.67118 4.75326 9.77624C5.39567 9.89652 6.0308 9.79134 6.38577 9.59414C6.74786 9.39298 7.20446 9.52344 7.40562 9.88552C7.60678 10.2476 7.47632 10.7042 7.11423 10.9054C6.39107 11.3071 5.38558 11.4207 4.47721 11.2506C3.56112 11.0791 2.57861 10.584 2.07918 9.58517L2 9.42681V9.24976C2 7.92657 2.67832 6.6346 3.5226 5.64257C4.22372 4.81875 5.11287 4.11476 6 3.7262V2.74976C6 2.33554 6.33579 1.99976 6.75 1.99976C7.16421 1.99976 7.5 2.33554 7.5 2.74976V4.01936C8.6542 5.69048 9.86291 6.63235 11.0681 7.57146C11.2754 7.73301 11.4826 7.89447 11.6894 8.05956C11.6902 7.99695 11.6922 7.93434 11.6953 7.87173C11.7466 6.83753 12.1089 5.85481 12.5792 4.91435C13.6384 2.79598 16.1734 1.60148 18.6233 2.00995C19.848 2.21413 20.9517 2.80527 21.748 3.75803C22.5458 4.71255 23 5.98768 23 7.49976C23 8.99642 22.0871 10.7548 20.3123 11.1518C21.1497 12.8505 21.7503 14.92 21.4932 16.8491C21.2244 18.8662 20.4523 20.4637 18.911 21.5241C17.4086 22.5578 15.2883 23 12.4999 23H10.0045L10 23L9.99032 23H4.74974C4.33553 23 3.99974 22.6642 3.99974 22.25C3.99974 21.8358 4.33553 21.5 4.74974 21.5H7.07209C6.49225 20.7987 6.07382 19.9222 5.84888 19.0289C5.52172 17.7296 5.55215 16.2429 6.11401 14.8979C5.19473 14.9895 4.12918 14.8784 2.98789 14.4527C2.59979 14.308 2.4025 13.876 2.54724 13.4879C2.69197 13.0998 3.12392 12.9025 3.51203 13.0473C5.47566 13.7796 6.9402 13.3128 7.5573 12.8577C7.62471 12.7965 7.69409 12.7365 7.76549 12.6775C7.8327 12.6204 7.90759 12.5772 7.98646 12.5476C8.07168 12.5156 8.16112 12.4999 8.25027 12.5C8.3804 12.5 8.51052 12.5337 8.62646 12.6011C8.68923 12.6375 8.74757 12.6836 8.79916 12.7392C8.86345 12.8082 8.91231 12.8864 8.94573 12.9694C9.02769 13.1724 9.01596 13.4015 8.91657 13.5942C8.88023 13.6647 8.83216 13.7303 8.77267 13.788C8.69615 13.8638 8.61219 13.9378 8.52117 14.0093C7.19946 15.2435 6.90093 17.064 7.30347 18.6626C7.74091 20.3997 8.87665 21.4956 9.99324 21.5H12.4999C15.1741 21.5 16.9288 21.0672 18.0608 20.2884C19.1538 19.5364 19.7754 18.3838 20.0063 16.6509C20.242 14.8826 19.5605 12.8055 18.5986 11.1221C18.5947 11.1154 18.591 11.1086 18.5874 11.1018C17.9439 10.9174 17.4262 10.5609 17.0342 10.1624C16.4781 9.5971 16.1443 8.91928 16.0224 8.43166C15.9219 8.02981 16.1663 7.62261 16.5681 7.52215C16.9699 7.42169 17.3771 7.66601 17.4776 8.06785C17.5354 8.29898 17.7375 8.73835 18.1036 9.11052C18.4549 9.46771 18.9259 9.73413 19.5468 9.73413C20.7195 9.73413 21.5 8.67611 21.5 7.49976C21.5 6.29526 21.1426 5.37268 20.5971 4.71997C20.0501 4.06552 19.2788 3.63994 18.3767 3.48953Z" fill="#24292E"/>
</svg>

<svg xmlns="http://www.w3.org/2000/svg" width="24" height="24" viewBox="0 0 24 24"><path d="M18.377 3.49c-1.862-.31-3.718.62-4.456 2.095-.428.857-.691 1.624-.728 2.361-.035.71.138 1.444.67 2.252.644.854 1.199 1.913 1.608 3.346a.75.75 0 11-1.442.412c-.353-1.236-.82-2.135-1.372-2.865l-.008-.01c-.53-.698-1.14-1.242-1.807-1.778a50.724 50.724 0 00-.667-.524C9.024 7.884 7.71 6.863 6.471 5.16c-.59.287-1.248.798-1.806 1.454-.665.78-1.097 1.66-1.158 2.446.246.36.685.61 1.246.715.643.12 1.278.015 1.633-.182a.75.75 0 11.728 1.311c-.723.402-1.728.516-2.637.346-.916-.172-1.898-.667-2.398-1.666L2 9.427V9.25c0-1.323.678-2.615 1.523-3.607.7-.824 1.59-1.528 2.477-1.917V2.75a.75.75 0 111.5 0v1.27c1.154 1.67 2.363 2.612 3.568 3.551.207.162.415.323.621.489.001-.063.003-.126.006-.188.052-1.034.414-2.017.884-2.958 1.06-2.118 3.594-3.313 6.044-2.904 1.225.204 2.329.795 3.125 1.748C22.546 4.713 23 5.988 23 7.5c0 1.496-.913 3.255-2.688 3.652.838 1.699 1.438 3.768 1.181 5.697-.269 2.017-1.04 3.615-2.582 4.675C17.409 22.558 15.288 23 12.5 23H4.75a.75.75 0 010-1.5h2.322c-.58-.701-.998-1.578-1.223-2.471-.327-1.3-.297-2.786.265-4.131-.92.091-1.985-.02-3.126-.445a.75.75 0 11.524-1.406c1.964.733 3.428.266 4.045-.19.068-.06.137-.12.208-.18a.745.745 0 01.861-.076.746.746 0 01.32.368.752.752 0 01-.173.819c-.077.076-.16.15-.252.221-1.322 1.234-1.62 3.055-1.218 4.654.438 1.737 1.574 2.833 2.69 2.837H12.5c2.674 0 4.429-.433 5.56-1.212 1.094-.752 1.715-1.904 1.946-3.637.236-1.768-.445-3.845-1.407-5.529a.576.576 0 01-.012-.02 3.557 3.557 0 01-1.553-.94c-.556-.565-.89-1.243-1.012-1.73a.75.75 0 011.456-.364c.057.231.26.67.626 1.043.35.357.822.623 1.443.623 1.172 0 1.953-1.058 1.953-2.234 0-1.205-.357-2.127-.903-2.78-.547-.654-1.318-1.08-2.22-1.23z"/></svg>
